X:347
T:Fergal O'Gara
S:Niall Kenny (flute), Scotland
O:Ireland
Z:Nigel Gatherer
L:1/8
M:4/4
K:D
A>AAB defa|bfaf efdA|dBBA BAGF|GEFD fdBd|
A>AAB defa|bfaf efdA|dBBA BAGF|G>GEA Fd d2:|
fd (3ddd fdge|fdgf edBc|dBBA Bcde|fdgf edBc|
fd (3ddd fdge|fdgf edBc|dBBA BcdB|AFEF D3 z|
fd (3ddd fdge|fdgf edBc|dBBA Bcde|fdgf e3 z|
a>aaf edBc|dedB BA F2|A>AAB defa|bf (3afe d3 z|]
<end>
<start>
